svg/icon/poa.svg

<svg height="32" viewBox="0 0 32 32" width="32" xmlns="http://www.w3.org/2000/svg" xmlns:xlink="http://www.w3.org/1999/xlink"><defs><linearGradient id="a" x1="50%" x2="50%" y1="0%" y2="100%"><stop offset="0" stop-color="#fff" stop-opacity=".5"/><stop offset="1" stop-opacity=".5"/></linearGradient><circle id="b" cx="16" cy="15" r="15"/><filter id="c" height="111.7%" width="111.7%" x="-5.8%" y="-4.2%"><feOffset dy=".5" in="SourceAlpha" result="shadowOffsetOuter1"/><feGaussianBlur in="shadowOffsetOuter1" result="shadowBlurOuter1" stdDeviation=".5"/><feComposite in="shadowBlurOuter1" in2="SourceAlpha" operator="out" result="shadowBlurOuter1"/><feColorMatrix in="shadowBlurOuter1" values="0 0 0 0 0   0 0 0 0 0   0 0 0 0 0  0 0 0 0.199473505 0"/></filter><path id="d" d="m5 23 11-19 11 19zm6.8722787-9.6759071c1.2848959-.8581124 2.6626018-1.2915763 4.1277213-1.2915763s2.8428254.4334639 4.1277213 1.2915763l-4.1277213-7.12970037zm-1.95148877 3.3707534-2.99671731 5.1761481h18.15185478l-2.9967173-5.1761481c-1.8099181 1.9887346-3.8427198 2.99878-6.0792101 2.99878s-4.269292-1.0100454-6.07921007-2.99878zm6.07921007 1.8697744c1.9382855 0 3.7112-.88979 5.3384422-2.7015492-1.6272422-1.8117592-3.4001567-2.7015492-5.3384422-2.7015492s-3.7112.88979-5.3384422 2.7015492c1.6272422 1.8117592 3.4001567 2.7015492 5.3384422 2.7015492zm0-.4838596c-1.1603332 0-2.1009691-.9748408-2.1009691-2.177368 0-1.2025271.9406359-2.177368 2.1009691-2.177368s2.1009691.9748409 2.1009691 2.177368c0 1.2025272-.9406359 2.177368-2.1009691 2.177368zm0-1.1290056c.558679 0 1.0115777-.4693678 1.0115777-1.0483624 0-.5789945-.4528987-1.0483624-1.0115777-1.0483624s-1.0115777.4693679-1.0115777 1.0483624c0 .5789946.4528987 1.0483624 1.0115777 1.0483624z"/><filter id="e" height="118.4%" width="115.9%" x="-8%" y="-6.6%"><feOffset dy=".5" in="SourceAlpha" result="shadowOffsetOuter1"/><feGaussianBlur in="shadowOffsetOuter1" result="shadowBlurOuter1" stdDeviation=".5"/><feColorMatrix in="shadowBlurOuter1" values="0 0 0 0 0   0 0 0 0 0   0 0 0 0 0  0 0 0 0.204257246 0"/></filter></defs><g fill="none" fill-rule="nonzero"><g><use fill="#000" filter="url(#c)" xlink:href="#b"/><use fill="#444fa1" fill-rule="evenodd" xlink:href="#b"/><use fill="url(#a)" fill-rule="evenodd" xlink:href="#b"/><circle cx="16" cy="15" r="14.5" stroke="#000" stroke-opacity=".097"/></g><g><use fill="#000" filter="url(#e)" xlink:href="#d"/><use fill="#fff" fill-rule="evenodd" xlink:href="#d"/></g></g></svg>

<svg xmlns="http://www.w3.org/2000/svg" xmlns:xlink="http://www.w3.org/1999/xlink" width="32" height="32" viewBox="0 0 32 32">
  <defs>
    <linearGradient id="poa-c" x1="50%" x2="50%" y1="0%" y2="100%">
      <stop offset="0%" stop-color="#FFF" stop-opacity=".5"/>
      <stop offset="100%" stop-opacity=".5"/>
    </linearGradient>
    <circle id="poa-b" cx="16" cy="15" r="15"/>
    <filter id="poa-a" width="111.7%" height="111.7%" x="-5.8%" y="-4.2%" filterUnits="objectBoundingBox">
      <feOffset dy=".5" in="SourceAlpha" result="shadowOffsetOuter1"/>
      <feGaussianBlur in="shadowOffsetOuter1" result="shadowBlurOuter1" stdDeviation=".5"/>
      <feComposite in="shadowBlurOuter1" in2="SourceAlpha" operator="out" result="shadowBlurOuter1"/>
      <feColorMatrix in="shadowBlurOuter1" values="0 0 0 0 0   0 0 0 0 0   0 0 0 0 0  0 0 0 0.199473505 0"/>
    </filter>
    <path id="poa-e" d="M5,23 L16,4 L27,23 L5,23 Z M11.8722787,13.3240929 C13.1571746,12.4659805 14.5348805,12.0325166 16,12.0325166 C17.4651195,12.0325166 18.8428254,12.4659805 20.1277213,13.3240929 L16,6.19439253 L11.8722787,13.3240929 Z M9.92078993,16.6948463 L6.92407262,21.8709944 L25.0759274,21.8709944 L22.0792101,16.6948463 C20.269292,18.6835809 18.2364903,19.6936263 16,19.6936263 C13.7635097,19.6936263 11.730708,18.6835809 9.92078993,16.6948463 Z M16,18.5646207 C17.9382855,18.5646207 19.7112,17.6748307 21.3384422,15.8630715 C19.7112,14.0513123 17.9382855,13.1615223 16,13.1615223 C14.0617145,13.1615223 12.2888,14.0513123 10.6615578,15.8630715 C12.2888,17.6748307 14.0617145,18.5646207 16,18.5646207 Z M16,18.0807611 C14.8396668,18.0807611 13.8990309,17.1059203 13.8990309,15.9033931 C13.8990309,14.700866 14.8396668,13.7260251 16,13.7260251 C17.1603332,13.7260251 18.1009691,14.700866 18.1009691,15.9033931 C18.1009691,17.1059203 17.1603332,18.0807611 16,18.0807611 Z M16,16.9517555 C16.558679,16.9517555 17.0115777,16.4823877 17.0115777,15.9033931 C17.0115777,15.3243986 16.558679,14.8550307 16,14.8550307 C15.441321,14.8550307 14.9884223,15.3243986 14.9884223,15.9033931 C14.9884223,16.4823877 15.441321,16.9517555 16,16.9517555 Z"/>
    <filter id="poa-d" width="115.9%" height="118.4%" x="-8%" y="-6.6%" filterUnits="objectBoundingBox">
      <feOffset dy=".5" in="SourceAlpha" result="shadowOffsetOuter1"/>
      <feGaussianBlur in="shadowOffsetOuter1" result="shadowBlurOuter1" stdDeviation=".5"/>
      <feColorMatrix in="shadowBlurOuter1" values="0 0 0 0 0   0 0 0 0 0   0 0 0 0 0  0 0 0 0.204257246 0"/>
    </filter>
  </defs>
  <g fill="none" fill-rule="evenodd">
    <g fill-rule="nonzero">
      <use fill="#000" filter="url(#poa-a)" xlink:href="#poa-b"/>
      <use fill="#444FA1" fill-rule="evenodd" xlink:href="#poa-b"/>
      <use fill="url(#poa-c)" fill-rule="evenodd" style="mix-blend-mode:soft-light" xlink:href="#poa-b"/>
      <circle cx="16" cy="15" r="14.5" stroke="#000" stroke-opacity=".097"/>
    </g>
    <g fill-rule="nonzero">
      <use fill="#000" filter="url(#poa-d)" xlink:href="#poa-e"/>
      <use fill="#FFF" fill-rule="evenodd" xlink:href="#poa-e"/>
    </g>
  </g>
</svg>
